X:1
T:Title
%%score { 1 | 2 }
L:1/8
M:4/4
K:F
V:1 treble nm="Grand Piano"
V:2 bass 
V:1
 z4 z2[Q:1/4=100] F2 | A3 A _A2 =A2 | B3 B A2 F2 | [CDA]2 [B,DG]2 F2 E2 |[M:3/4] F6 |[M:1/4] A2 | %6
[M:4/4] [EG]3 [EG] [FA]2 [F=B]2 | [Ec]2 E2 G2 F2 | E3 C E2 [=B,D]2 |[M:3/4] C6 |[M:1/4] E2 | %11
[M:4/4] F3 [EG] A2 d2 | c2 B2 A2 [EG]2 | [DF]3 [^CE] [DF]2 [DG]2 |[M:3/4] [^CA]6 |[M:1/4] [EG]2 | %16
[M:4/4] [DF]3 [D^F] [DG]2 [DA]2 | [Dc]2 [DB]2 [DA]2 [G,DG]2 | [A,CF]3 [CFA] [CEA]2 [B,EG]2 | %19
[M:7/4] [A,F]6 z2 z2 z4 |[M:4/4] [B,DF]4 [F,A,CF]4 |] %21
V:2
 z4 z2 [F,A,]2 | [F,CF]3 [F,CF] [F,=B,F]2 [F,CF]2 | [F,DF]3 [F,^CF] [F,=CF]2 [F,A,C]2 | %3
 B,,2 B,,2 [C,A,C]2 [C,G,C]2 |[M:3/4] [F,A,C]6 |[M:1/4] [F,CF]2 | %6
[M:4/4] [C,C]3 [C,C] [F,C]2 [D,G,]2 | [C,G,]2 [C,G,C]2 [E,G,C]2 [F,A,C]2 | %8
 [G,C]3 [E,G,] [G,C]2 [G,,F,]2 |[M:3/4] [C,E,]6 |[M:1/4] [C,G,C]2 | %11
[M:4/4] [F,A,C]3 [C,C][K:treble] [F,CF]2 [B,F]2 | [A,CF]2 [G,CE]2 [F,CF]2[K:bass] [C,B,]2 | %13
 [D,A,]3 [A,,A,] [D,A,]2 [B,,D,]2 |[M:3/4] [A,,E,]6 |[M:1/4] [^C,A,]2 | %16
[M:4/4] [D,A,]3 [C,A,] [B,,G,]2 [A,,^F,]2 | [G,,G,]2 [G,,G,]2 [A,,^F,]2 B,,2 | C,3 C, C,2 C,2 | %19
[M:7/4] F,6 z2 z2 z4 |[M:4/4] B,,4 F,,4 |] %21

